resources/haticons/SVG/known.svg

<!-- Generated by IcoMoon.io -->
<svg version="1.1" xmlns="http://www.w3.org/2000/svg" width="24" height="24" viewBox="0 0 24 24">
<title>known</title>
<path d="M24 12c0 6.6-5.4 12-12 12s-12-5.4-12-12 5.4-12 12-12 12 5.4 12 12zM12 1.8c-5.7 0-10.2 4.5-10.2 10.2s4.5 10.2 10.2 10.2 10.2-4.5 10.2-10.2-4.5-10.2-10.2-10.2zM17.6 7.2l-0.2 0.2c0.1-0.1 0.3-0.2 0.4-0.2zM17.8 7.2h0.5v-1.9h-5.5v1.9h0.9c0.2 0 0.3 0.1 0.3 0.3 0 0.1 0 0.2-0.1 0.2l-3.8 3.8h-0.1c-0.1 0-0.2-0.1-0.2-0.2v-3.4c0-0.4 0.3-0.7 0.7-0.7h0.8v-1.9h-5.9v1.9h0.7c0.4 0 0.7 0.3 0.7 0.7v8.4c0 0.4-0.3 0.7-0.7 0.7h-0.7v2h5.9v-2h-0.8c-0.4 0-0.7-0.3-0.7-0.7v-1.4c0-0.1 0-0.2 0.1-0.3l1.5-1.5c0 0 0.1-0.1 0.2-0.1s0.2 0 0.2 0.1l2.1 3.3v0.2c0 0.2-0.1 0.3-0.3 0.3h-0.9v2h6.3v-2h-0.7c-0.2 0-0.4-0.1-0.5-0.3v-0.1l-3.7-5.5c0-0.1-0.1-0.1-0.1-0.2s0-0.2 0.1-0.2l3.2-3.2c0.2-0.2 0.3-0.2 0.5-0.2z"></path>
</svg>

<svg xmlns="http://www.w3.org/2000/svg" width="24" height="24"><path d="M24 12c0 6.6-5.4 12-12 12S0 18.6 0 12 5.4 0 12 0s12 5.4 12 12zM12 1.8C6.3 1.8 1.8 6.3 1.8 12S6.3 22.2 12 22.2 22.2 17.7 22.2 12 17.7 1.8 12 1.8zm5.6 5.4l-.2.2c.1-.1.3-.2.4-.2zm.2 0h.5V5.3h-5.5v1.9h.9c.2 0 .3.1.3.3 0 .1 0 .2-.1.2l-3.8 3.8H10c-.1 0-.2-.1-.2-.2V7.9c0-.4.3-.7.7-.7h.8V5.3H5.4v1.9h.7c.4 0 .7.3.7.7v8.4c0 .4-.3.7-.7.7h-.7v2h5.9v-2h-.8c-.4 0-.7-.3-.7-.7v-1.4c0-.1 0-.2.1-.3l1.5-1.5s.1-.1.2-.1.2 0 .2.1l2.1 3.3v.2c0 .2-.1.3-.3.3h-.9v2H19v-2h-.7c-.2 0-.4-.1-.5-.3v-.1L14.1 11c0-.1-.1-.1-.1-.2s0-.2.1-.2l3.2-3.2c.2-.2.3-.2.5-.2z"/></svg>
